src/assets/icon/friends.svg

<svg width="100" height="100" viewBox="0 0 100 100" fill="none" xmlns="http://www.w3.org/2000/svg">
<g id="friends">
<g id="Group 209">
<g id="Group 199">
<path id="Union" fill-rule="evenodd" clip-rule="evenodd" d="M18.7003 47.575V22C8.10372 22.0631 8.60182 30.2904 8.96573 36.3014C9.02705 37.314 9.08455 38.2638 9.08455 39.1011C9.08455 44.9079 18.7003 47.575 18.7003 47.575ZM18.7004 47.575V22C29.297 22.0631 28.7989 30.2904 28.4349 36.3014C28.3736 37.314 28.3161 38.2638 28.3161 39.1011C28.3161 44.9079 18.7004 47.575 18.7004 47.575Z" fill="#BC851E"/>
<path id="Union_2" fill-rule="evenodd" clip-rule="evenodd" d="M19.0639 59.3253C18.8029 59.5066 18.5529 59.6899 18.3139 59.8741C12.8158 64.1122 13.0001 69 13.0001 69V75.6569C8.51673 74.4408 2.60683 72.4437 0.000382965 69.85V61.6C0.000382965 61.6 -0.124602 58.2795 4.05388 55.8195C5.10712 55.1994 6.27063 54.7021 7.40676 54.2166C10.7779 52.7759 13.9079 51.4384 13.2004 47.3C13.2004 47.3 13.7304 48.4061 15.6505 49.4302C16.9405 50.1182 18.7004 50.6 18.7004 50.6C18.7003 50.6 20.4602 50.1182 21.7502 49.4302C23.6702 48.4061 24.2003 47.3 24.2003 47.3C23.509 51.3431 26.4807 52.7129 29.7616 54.1172C28.705 54.6189 27.5931 55.0941 26.4663 55.5757L26.4651 55.5762C24.3998 56.4589 22.2848 57.3627 20.3701 58.49C19.9062 58.7631 19.4713 59.0421 19.0639 59.3253Z" fill="#BC851E"/>
</g>
<g id="Group 201">
<path id="Union_3" fill-rule="evenodd" clip-rule="evenodd" d="M50 0C30.7334 0.114739 31.639 15.0734 32.3007 26.0025C32.4122 27.8437 32.5167 29.5706 32.5167 31.0929C32.5167 41.6508 50 46.5 50 46.5C50 46.5 67.4832 41.6508 67.4832 31.0929C67.4832 29.5706 67.5878 27.8437 67.6992 26.0025C68.3609 15.0734 69.2665 0.114739 50 0Z" fill="url(#paint0_linear_2158_30588)"/>
<path id="Union_4" fill-rule="evenodd" clip-rule="evenodd" d="M29.4663 58.5757C27.4006 59.4585 25.2851 60.3625 23.3701 61.49C15.7728 65.9629 16.0001 72 16.0001 72V87C24.14 95.1 50.0001 100 50.0001 100C49.9999 100 75.86 95.1 83.9999 87V72C83.9999 72 84.2271 65.9629 76.6299 61.49C74.7149 60.3625 72.5994 59.4585 70.5337 58.5757C64.4043 55.9562 58.7134 53.5242 59.9999 46C59.9999 46 59.0362 48.0112 55.5451 49.873C53.1997 51.124 49.9999 52 50.0001 52C50.0001 52 46.8003 51.124 44.4549 49.873C40.9638 48.0112 40.0001 46 40.0001 46C41.2866 53.5242 35.5957 55.9562 29.4663 58.5757Z" fill="url(#paint1_linear_2158_30588)"/>
</g>
<g id="Group 200">
<path id="Union_5" fill-rule="evenodd" clip-rule="evenodd" d="M81.2997 47.575V22C91.8963 22.0631 91.3982 30.2904 91.0342 36.3014C90.9729 37.314 90.9154 38.2638 90.9154 39.1011C90.9154 44.9079 81.2997 47.575 81.2997 47.575ZM81.2996 47.575V22C70.703 22.0631 71.2011 30.2904 71.565 36.3014C71.6263 37.314 71.6839 38.2638 71.6839 39.1011C71.6839 44.9079 81.2996 47.575 81.2996 47.575Z" fill="#BC851E"/>
<path id="Union_6" fill-rule="evenodd" clip-rule="evenodd" d="M80.9361 59.3253C81.1972 59.5067 81.447 59.6897 81.6861 59.8741C87.1839 64.1121 86.9999 69 86.9999 69V75.6568C91.4833 74.4408 97.3932 72.4437 99.9996 69.85V61.6C99.9996 61.6 100.125 58.2796 95.9461 55.8195C94.8928 55.1994 93.7293 54.7021 92.5932 54.2166C89.222 52.7759 86.0921 51.4383 86.7996 47.3C86.7996 47.3 86.2696 48.4061 84.3495 49.4302C83.0642 50.1156 81.3125 50.5965 81.2997 50.6C81.2869 50.5965 79.5351 50.1156 78.2498 49.4302C76.3298 48.4061 75.7997 47.3 75.7997 47.3C76.491 51.3431 73.5193 52.7129 70.2385 54.1173C71.295 54.6189 72.4069 55.0941 73.5337 55.5757C75.5994 56.4585 77.7149 57.3625 79.6299 58.49C80.0939 58.7632 80.5286 59.0422 80.9361 59.3253Z" fill="#BC851E"/>
</g>
</g>
</g>
<defs>
<linearGradient id="paint0_linear_2158_30588" x1="50" y1="0" x2="50" y2="46.5" gradientUnits="userSpaceOnUse">
<stop stop-color="#AB750F"/>
<stop offset="0.516" stop-color="#D8A956"/>
<stop offset="1" stop-color="#AB750F"/>
</linearGradient>
<linearGradient id="paint1_linear_2158_30588" x1="50" y1="46" x2="50" y2="100" gradientUnits="userSpaceOnUse">
<stop stop-color="#AB750F"/>
<stop offset="0.516" stop-color="#D8A956"/>
<stop offset="1" stop-color="#AB750F"/>
</linearGradient>
</defs>
</svg>

<svg xmlns="http://www.w3.org/2000/svg" width="100" height="100" fill="none" xmlns:v="https://vecta.io/nano"><g fill-rule="evenodd"><path d="M18.7 47.575V22c-10.597.063-10.098 8.29-9.735 14.301.061 1.013.119 1.962.119 2.8 0 5.807 9.616 8.474 9.616 8.474zm0 0V22c10.597.063 10.099 8.29 9.735 14.301-.061 1.013-.119 1.962-.119 2.8 0 5.807-9.616 8.474-9.616 8.474zm.364 11.75l-.75.549C12.816 64.112 13 69 13 69v6.657C8.517 74.441 2.607 72.444 0 69.85V61.6s-.125-3.321 4.053-5.781c1.053-.62 2.217-1.117 3.353-1.603 3.371-1.441 6.501-2.778 5.794-6.917 0 0 .53 1.106 2.45 2.13 1.29.688 3.05 1.17 3.05 1.17s1.76-.482 3.05-1.17c1.92-1.024 2.45-2.13 2.45-2.13-.691 4.043 2.28 5.413 5.561 6.817-1.057.502-2.169.977-3.295 1.459h-.001c-2.065.883-4.18 1.786-6.095 2.914a20.57 20.57 0 0 0-1.306.835z" fill="#bc851e"/><path d="M50 0C30.733.115 31.639 15.073 32.301 26.003c.111 1.841.216 3.568.216 5.09C32.517 41.651 50 46.5 50 46.5s17.483-4.849 17.483-15.407c0-1.522.105-3.249.216-5.09C68.361 15.073 69.267.115 50 0z" fill="url(#A)"/><path d="M29.466 58.576L23.37 61.49C15.773 65.963 16 72 16 72v15c8.14 8.1 34 13 34 13s25.86-4.9 34-13V72s.227-6.037-7.37-10.51c-1.915-1.128-4.031-2.032-6.096-2.914C64.404 55.956 58.713 53.524 60 46c0 0-.964 2.011-4.455 3.873C53.2 51.124 50 52 50 52s-3.2-.876-5.545-2.127C40.964 48.011 40 46 40 46c1.286 7.524-4.404 9.956-10.534 12.576z" fill="url(#B)"/><path d="M81.3 47.575V22c10.597.063 10.099 8.29 9.734 14.301-.061 1.013-.119 1.962-.119 2.8 0 5.807-9.616 8.474-9.616 8.474zm0 0V22c-10.597.063-10.099 8.29-9.735 14.301.061 1.013.119 1.962.119 2.8 0 5.807 9.616 8.474 9.616 8.474zm-.364 11.75l.75.549C87.184 64.112 87 69 87 69v6.657c4.483-1.216 10.393-3.213 13-5.807V61.6s.125-3.32-4.053-5.781c-1.053-.62-2.217-1.117-3.353-1.603-3.371-1.441-6.501-2.778-5.794-6.917 0 0-.53 1.106-2.45 2.13-1.285.685-3.037 1.166-3.05 1.17-.013-.004-1.765-.484-3.05-1.17-1.92-1.024-2.45-2.13-2.45-2.13.691 4.043-2.28 5.413-5.561 6.817 1.056.502 2.168.977 3.295 1.458 2.066.883 4.181 1.787 6.096 2.914a20.66 20.66 0 0 1 1.306.835z" fill="#bc851e"/></g><defs><linearGradient id="A" x1="50" y1="0" x2="50" y2="46.5" gradientUnits="userSpaceOnUse"><stop stop-color="#ab750f"/><stop offset=".516" stop-color="#d8a956"/><stop offset="1" stop-color="#ab750f"/></linearGradient><linearGradient id="B" x1="50" y1="46" x2="50" y2="100" gradientUnits="userSpaceOnUse"><stop stop-color="#ab750f"/><stop offset=".516" stop-color="#d8a956"/><stop offset="1" stop-color="#ab750f"/></linearGradient></defs></svg>
